X:1
T: Irishman's Heart to the Ladies, An
R: jig
Z: 1997 by John Chambers <jc:trillian.mit.edu>
M: 6/8
L: 1/8
K:A
a \
|: "A"ecA "D"BAF | "A"AFE EFA | "Bm"Bdc BAB | "E7"cBB B2a |
| "A"ecA "D"BAF | "A"AFE EFA | "Bm"Bdc "E7"BAB | "A"cAA A2 :|
|:B \
| "A"cee "D"dff | "A"cee ecA | Ace "D"faf | "A"ecA "E7"B2A |
| "A"cee "D"dff | "A"cee ecA | "Bm"Bdc "E7"BAB | "A"cAA A2 :|
